symbols/web/smoking_rooms/materialsymbolsrounded/smoking_rooms_wght100_20px.svg

<svg xmlns="http://www.w3.org/2000/svg" height="20" width="20"><path d="M15.021 14.917v-1.229h.625v1.229Zm-11.5 0q-.271 0-.438-.177-.166-.178-.166-.428t.187-.437q.188-.187.438-.187h10.666v1.229Zm11.812-2.459q-.125 0-.218-.093-.094-.094-.094-.219v-.771q0-.646-.427-1.135-.427-.49-1.156-.49h-1.292q-.896 0-1.5-.646t-.604-1.583q0-.771.51-1.354.51-.584 1.323-.688.083-.021.177.063.094.083.094.187 0 .146-.084.25-.083.104-.27.125-.521.104-.844.49-.323.385-.323.927 0 .625.427 1.114.427.49 1.094.49h1.292q.874 0 1.541.646.667.646.667 1.583v.792q0 .125-.084.219-.083.093-.229.093Zm1.125 2.459v-1.229h.625v1.229Zm.313-2.459q-.125 0-.219-.093-.094-.094-.094-.219v-1.521q0-1.313-.843-2.115-.844-.802-2.136-.906-.125 0-.208-.083-.083-.083-.083-.25 0-.083.093-.177.094-.094.198-.136.5-.104.833-.489.334-.386.334-.927 0-.563-.323-1Q14 4.104 13.521 4q-.146-.062-.24-.167-.093-.104-.093-.229t.083-.198q.083-.073.187-.052.792.104 1.302.74.511.635.511 1.448 0 .583-.229 1-.23.416-.625.646 1.062.291 1.864 1.156.802.864.802 2.281v1.521q0 .125-.083.219-.083.093-.229.093Z"/></svg>

<svg xmlns="http://www.w3.org/2000/svg" height="20" width="20"><path d="M15.021 14.917V13.688H15.646V14.917ZM3.521 14.917Q3.25 14.917 3.083 14.74Q2.917 14.562 2.917 14.312Q2.917 14.062 3.104 13.875Q3.292 13.688 3.542 13.688H14.208V14.917ZM15.333 12.458Q15.208 12.458 15.115 12.365Q15.021 12.271 15.021 12.146V11.375Q15.021 10.729 14.594 10.24Q14.167 9.75 13.438 9.75H12.146Q11.25 9.75 10.646 9.104Q10.042 8.458 10.042 7.521Q10.042 6.75 10.552 6.167Q11.062 5.583 11.875 5.479Q11.958 5.458 12.052 5.542Q12.146 5.625 12.146 5.729Q12.146 5.875 12.062 5.979Q11.979 6.083 11.792 6.104Q11.271 6.208 10.948 6.594Q10.625 6.979 10.625 7.521Q10.625 8.146 11.052 8.635Q11.479 9.125 12.146 9.125H13.438Q14.312 9.125 14.979 9.771Q15.646 10.417 15.646 11.354V12.146Q15.646 12.271 15.562 12.365Q15.479 12.458 15.333 12.458ZM16.458 14.917V13.688H17.083V14.917ZM16.771 12.458Q16.646 12.458 16.552 12.365Q16.458 12.271 16.458 12.146V10.625Q16.458 9.312 15.615 8.51Q14.771 7.708 13.479 7.604Q13.354 7.604 13.271 7.521Q13.188 7.438 13.188 7.271Q13.188 7.188 13.281 7.094Q13.375 7 13.479 6.958Q13.979 6.854 14.312 6.469Q14.646 6.083 14.646 5.542Q14.646 4.979 14.323 4.542Q14 4.104 13.521 4Q13.375 3.938 13.281 3.833Q13.188 3.729 13.188 3.604Q13.188 3.479 13.271 3.406Q13.354 3.333 13.458 3.354Q14.25 3.458 14.76 4.094Q15.271 4.729 15.271 5.542Q15.271 6.125 15.042 6.542Q14.812 6.958 14.417 7.188Q15.479 7.479 16.281 8.344Q17.083 9.208 17.083 10.625V12.146Q17.083 12.271 17 12.365Q16.917 12.458 16.771 12.458Z"/></svg>
